X: 19
T: Robertson's Reel (G)
R: Reel
F: http://banjolin.co.uk/tunes/abcs/robertsons.abc
O: Shetland
R: reel
M: 4/4
L: 1/8
K: G
GA|:"G"B2AB d2BA|GAGE D2GA|B2AB "G/B"dBGB|"C"A6"D" GA|
|"G"B2AB "(D/F#)"d2BA|"(Em)"GAGE "(G/D)"D2GA|"C"BABd "D"AGAB|1 "G"G6 GA:|2"G"G6 Bc|
|:"G"d2Bd g2fg|"C"edBc "D"d2Bc|"G"d2Bd g2f2|"C"e6"D" f2|
|"G(Em)"g2G2 "(G/D)"G2BA|"(C)"GAGE "(G/B)"D2GA|"C"BABd "D"AGAB|1"G"G6 Bc:|2"G"G6 GA|

